X:1
T:Carol of the Bells
T:Carol of the Bells
T:Ukranian Bell Carol
T:M. Leontovich
C:M. Leontovich
%%score { 1 | 2 }
L:1/8
M:3/4
K:G
V:1 treble nm="Piano" snm="Pno."
V:2 bass 
V:1
 G2 FG E2 | G2 FG E2 | G2 FG E2 | G2 FG E2 |: G2 FG E2 | G2 FG E2 | G2 FG E2 | G2 FG E2 | %8
 G2 FG E2 | G2 FG E2 | G2 FG E2 | G2 FG E2 | [EG]2 FG E2 | [EG]2 FG E2 | [EG]2 FG E2 | %15
 [EG]2 FG E2 | [GB]2 AB G2 | [GB]2 AB G2 | [GB]2 AB G2 | [GB]2 AB G2 | [Ge]2 ee dc | [GB]2 BB AG | %22
 A2 AA BA | E2 EE E2 | z2 z2 FG | AB A2 G2 | z4 FG | AB A2 G2 | G2 FG E2 | G2 FG E2 | G2 FG E2 | %31
 G2 FG E2 | G2 FG E2 | G2 FG E2 | G2 FG E2 | G2 FG E2 :| G2 FG E2 | G2 FG E2 | [GB]2 [FA][GB] E2- | %39
 E2 E4 |] %40
V:2
 z6 | z6 | z6 | z6 |: E4 z2 | D4 z2 | C4 z2 | B,4 z2 | [CE]4 z2 | [B,D]4 z2 | [A,C]4 z2 | %11
 [E,B,]4 z2 | [C,G,]4 z2 | [E,B,]4 z2 | [A,C]4 z2 | [E,B,]4 z2 | [E,B,]4 z2 | [E,C]4 z2 | %18
 [E,D]2 [E,C]2 [E,B,]2 | [E,D]2 [E,C]2 [E,B,]2 | [E,B,]6 | [E,B,]6 | [E,C]6 | [E,B,]6 | %24
 B,^C ^DE z2 | [E,B,]4 z2 | B,^C ^DE z2 | [E,B,]2 z2 z2 | [D,E,]4 z2 | [C,E,]4 z2 | [B,,E,]4 z2 | %31
 [A,,E,]4 z2 | [E,,B,,]4- [E,,B,,]2- | [E,,B,,]4- [E,,B,,]2- | [E,,B,,]2- [E,,B,,]4 | z4 z2 :| %36
 [E,,B,,]4 z2 | [E,,B,,]4 z2 | z6 | E,,4- E,,2 |] %40

